X:4323
L:1/4
M:4/4
K:G
 G/A/ |"G" B G D G/A/ | B G D G/A/ |"G" B G"C" E/F/ G | E2"G" D2 |"C" C E E D/C/ |"G" B, D G B | 
"A7" B A E B |"D7" B A A G/A/ |"G" B G D G/A/ | B G D G/A/ |"G" B G"C" E/F/ G |"C" E2"G" D2 | 
"C" E G c e |"G" e d B d/c/ |"A7" B A"D7" G F |"G" G3 d/c/ ||"G" B B B d/c/ | B B B d/c/ | 
"G" B d g a | b2 g2 |"C" a3/2 b/ a g |"C" e/f/g/e/"G" d B/d/ |"Am" e d c B |"D7" A3 d/c/ | 
"G" B B B d/c/ | B B B d/c/ |"G" B d g a | b2 g2 |"C" a/b/a/g/ f e/f/ |"C" g/a/g/e/"G" d B/d/ | 
"C" e g"D7" f a |"G" g3 ||

